src/assets/weapons/smokegrenade.svg

<svg viewBox="0 0 10.501 24.026" xmlns="http://www.w3.org/2000/svg">
 <g transform="translate(15.078 -186.8)">
  <g transform="matrix(.20386 0 0 .20386 -20.446 185.11)" >
   <path d="m40.382 25.191c-0.325 0.526 0.356 1.965 1.513 3.197 1.656 1.763 2.105 3.518 2.105 8.226 0 3.323-0.534 6.52-1.2 7.186-0.66 0.66-3.16 1.2-5.555 1.2h-4.355l0.61 9.5 5 1.31c5.596 1.466 22.254 1.048 26.683-0.669 2.034-0.789 2.761-1.838 3.007-4.341 0.178-1.815 0.666 7.643 1.084 21.018s0.501 24.737 0.184 25.25-0.085 0.932 0.514 0.932c0.6 0 1.311-0.575 1.581-1.278 0.27-0.702 0.103-12.965-0.37-27.25-0.492-14.845-0.485-26.464 0.016-27.12 2.852-3.735 1.049-10.632-3.28-12.548-1.606-0.711-2.919-1.632-2.919-2.048s-0.627-0.756-1.393-0.756-1.659-0.693-1.984-1.54c-0.484-1.261-2.412-1.512-10.621-1.383-5.516 0.086-10.295 0.588-10.62 1.114m24.618 7.187c0 0.758 0.722 3.106 1.604 5.217 1.513 3.621 1.684 3.731 3 1.931 1.786-2.441 1.757-3.566-0.161-6.303-1.729-2.469-4.443-2.985-4.443-0.845m-7.82 8.872c0.338 2.373 4.302 3.546 7.648 2.263 1.426-0.548 1.309-0.906-0.835-2.553-1.371-1.053-3.537-1.926-4.813-1.938-1.838-0.017-2.253 0.445-2 2.228m4.32 20.415c-5.795 1.356-19.046 1.21-25.75-0.285l-2.75-0.613v32.283l2.75 1.185c3.561 1.536 25.822 1.512 29.5-0.031l2.75-1.154v-16.525c0-9.089-0.112-16.466-0.25-16.395-0.138 0.072-2.95 0.762-6.25 1.535m0 39.12c-5.769 1.235-19.363 1.017-25.796-0.414l-2.797-0.622 0.297 7.376 0.296 7.375 16.772 0.274c13.488 0.221 16.875 6e-3 17.299-1.099 0.29-0.755 0.393-4.254 0.228-7.774l-0.299-6.401-6 1.285" fill-rule="evenodd"/>
  </g>
 </g>
</svg>

<svg xmlns="http://www.w3.org/2000/svg"   viewBox="0 0 100 130" version="1.1" fill="white">
	<path d="M 40.382 25.191 C 40.057 25.717, 40.738 27.156, 41.895 28.388 C 43.551 30.151, 44 31.906, 44 36.614 C 44 39.937, 43.466 43.134, 42.800 43.800 C 42.140 44.460, 39.640 45, 37.245 45 L 32.890 45 33.195 49.750 L 33.500 54.500 38.500 55.810 C 44.096 57.276, 60.754 56.858, 65.183 55.141 C 67.217 54.352, 67.944 53.303, 68.190 50.800 C 68.368 48.985, 68.856 58.443, 69.274 71.818 C 69.692 85.193, 69.775 96.555, 69.458 97.068 C 69.141 97.581, 69.373 98, 69.972 98 C 70.572 98, 71.283 97.425, 71.553 96.722 C 71.823 96.020, 71.656 83.757, 71.183 69.472 C 70.691 54.627, 70.698 43.008, 71.199 42.352 C 74.051 38.617, 72.248 31.720, 67.919 29.804 C 66.313 29.093, 65 28.172, 65 27.756 C 65 27.340, 64.373 27, 63.607 27 C 62.841 27, 61.948 26.307, 61.623 25.460 C 61.139 24.199, 59.211 23.948, 51.002 24.077 C 45.486 24.163, 40.707 24.665, 40.382 25.191 M 65 32.378 C 65 33.136, 65.722 35.484, 66.604 37.595 C 68.117 41.216, 68.288 41.326, 69.604 39.526 C 71.390 37.085, 71.361 35.960, 69.443 33.223 C 67.714 30.754, 65 30.238, 65 32.378 M 57.180 41.250 C 57.518 43.623, 61.482 44.796, 64.828 43.513 C 66.254 42.965, 66.137 42.607, 63.993 40.960 C 62.622 39.907, 60.456 39.034, 59.180 39.022 C 57.342 39.005, 56.927 39.467, 57.180 41.250 M 61.500 61.665 C 55.705 63.021, 42.454 62.875, 35.750 61.380 L 33 60.767 33 76.908 L 33 93.050 35.750 94.235 C 39.311 95.771, 61.572 95.747, 65.250 94.204 L 68 93.050 68 76.525 C 68 67.436, 67.888 60.059, 67.750 60.130 C 67.612 60.202, 64.800 60.892, 61.500 61.665 M 61.500 100.785 C 55.731 102.020, 42.137 101.802, 35.704 100.371 L 32.907 99.749 33.204 107.125 L 33.500 114.500 50.272 114.774 C 63.760 114.995, 67.147 114.780, 67.571 113.675 C 67.861 112.920, 67.964 109.421, 67.799 105.901 L 67.500 99.500 61.500 100.785" stroke="none" fill-rule="evenodd"/>
</svg>
